X:97
T:Katie Scollard's Polka
B:Terry "Cuz" Teahan "Sliabh Luachra on Parade" 1980
Z:Patrick Cavanagh
M:2/4
L:1/8
R:Polka
K:A
B | cA BA | FA E2 | FA/F/ EF | AF E2 | 
cA BA | FA E2 | FA Bc/B/ | A2 [1]A :|[2] A2 | 
|: AB cA | B/c/d ec | dB c/B/A | B/4c/4B/4A F2 | 
AB cA | B/c/d ec | dB cB | A2 A2 :|| 

